.local/share/icons/Gruvbox-Plus-Dark/panel/22/ladi-started.svg

<svg xmlns="http://www.w3.org/2000/svg" width="22" height="22" version="1.1">
 <defs>
  <style id="current-color-scheme" type="text/css">
   .ColorScheme-Text { color:#ebdbb2; } .ColorScheme-Highlight { color:#458588; }
  </style>
 </defs>
 <path style="fill:currentColor" class="ColorScheme-Text" d="m 18.56551,3.0034891 c -0.13338,-0.013832 -0.342365,0.01732 -0.728515,0.1152471 -0.768649,0.1949282 -0.930631,0.2539411 -0.921875,0.4219215 0.0049,0.094542 0.05525,0.1792495 0.191406,0.3320679 l -0.564453,0.562562 -0.154297,-0.1543139 c -0.04221,-0.042191 -0.09726,-0.062507 -0.152344,-0.062507 -0.05508,0 -0.110137,0.020316 -0.152344,0.062507 l -0.21875,0.2187741 1.652344,1.6232259 0.205078,-0.2051007 c 0.08441,-0.084382 0.08441,-0.2203388 0,-0.3047212 L 17.57137,5.4627446 18.135823,4.8982293 c 0.146377,0.1289882 0.227098,0.1779931 0.326172,0.189474 0.161676,0.018734 0.200243,-0.1736434 0.40625,-0.9395567 0.203467,-0.7564702 0.152188,-0.8089235 -0.02539,-0.9864369 -0.08481,-0.08478 -0.143964,-0.1443891 -0.277345,-0.1582206 z M 15.506916,4.8572092 10.702229,9.662425 12.338948,11.297372 17.15926,6.480435 Z M 9.3916821,9.85776 c -0.05764,7.3e-5 -0.113981,0.02221 -0.158203,0.06641 L 4.204182,14.950115 c -0.08844,0.08841 -0.08822,0.230207 0,0.318395 l 2.523438,2.521762 c 0.08822,0.08819 0.229915,0.08841 0.318359,0 l 5.027344,-5.025945 c 0.08844,-0.08841 0.08822,-0.230207 0,-0.318395 L 9.5518381,9.92417 C 9.5077281,9.88008 9.4493211,9.85768 9.3916821,9.85776 Z M 3.719807,16.198303 3.161214,16.755004 c -0.214952,0.214873 -0.214952,0.560604 0,0.775477 l 1.308593,1.308738 c 0.214952,0.214873 0.562392,0.214873 0.777344,0 l 0.556641,-0.556702 z"/>
 <path style="fill:currentColor" class="ColorScheme-Highlight" d="m 14.637421,12.000274 a 0.61917984,0.62770775 0 0 0 -0.637485,0.627347 v 6.744484 a 0.61917984,0.62770775 0 0 0 0.928927,0.543706 l 2.880477,-1.68622 2.880825,-1.685822 a 0.61917984,0.62770775 0 0 0 0,-1.087433 l -2.880825,-1.68582 -2.880477,-1.686502 a 0.61917984,0.62770775 0 0 0 -0.291407,-0.08364 z"/>
</svg>

<svg width="22" height="22" version="1.1" xmlns="http://www.w3.org/2000/svg">
  <defs>
    <style id="current-color-scheme" type="text/css">.ColorScheme-Text { color:#ebdbb2; } .ColorScheme-Highlight { color:#458588; } .ColorScheme-NeutralText { color:#fe8019; } .ColorScheme-PositiveText { color:#689d6a; } .ColorScheme-NegativeText { color:#fb4934; }</style>
  </defs>
  <path class="ColorScheme-Text" d="m18.57 3.003c-0.1334-0.01383-0.3424 0.01732-0.7285 0.1152-0.7686 0.1949-0.9306 0.2539-0.9219 0.4219 0.0049 0.09454 0.05525 0.1792 0.1914 0.3321l-0.5645 0.5626-0.1543-0.1543c-0.04221-0.04219-0.09726-0.06251-0.1523-0.06251-0.05508 0-0.1101 0.02032-0.1523 0.06251l-0.2188 0.2188 1.652 1.623 0.2051-0.2051c0.08441-0.08438 0.08441-0.2203 0-0.3047l-0.1504-0.1504 0.5645-0.5645c0.1464 0.129 0.2271 0.178 0.3262 0.1895 0.1617 0.01873 0.2002-0.1736 0.4062-0.9396 0.2035-0.7565 0.1522-0.8089-0.02539-0.9864-0.08481-0.08478-0.144-0.1444-0.2773-0.1582zm-3.059 1.854-4.805 4.805 1.637 1.635 4.82-4.817zm-6.115 5.001c-0.05764 7.3e-5 -0.114 0.02221-0.1582 0.06641l-5.029 5.026c-0.08844 0.08841-0.08822 0.2302 0 0.3184l2.523 2.522c0.08822 0.08819 0.2299 0.08841 0.3184 0l5.027-5.026c0.08844-0.08841 0.08822-0.2302 0-0.3184l-2.521-2.522c-0.04411-0.04409-0.1025-0.06649-0.1602-0.06641zm-5.672 6.341-0.5586 0.5567c-0.215 0.2149-0.215 0.5606 0 0.7755l1.309 1.309c0.215 0.2149 0.5624 0.2149 0.7773 0l0.5566-0.5567z" fill="currentColor"/>
  <path class="ColorScheme-Text" d="m14.64 12a0.6192 0.6277 0 0 0-0.6375 0.6273v6.744a0.6192 0.6277 0 0 0 0.9289 0.5437l2.88-1.686 2.881-1.686a0.6192 0.6277 0 0 0 0-1.087l-2.881-1.686-2.88-1.687a0.6192 0.6277 0 0 0-0.2914-0.08364z" fill="currentColor"/>
</svg>
